src/icons/svg/TrashContent.svg

<svg width="24" height="24" viewBox="0 0 24 24" fill="none" xmlns="http://www.w3.org/2000/svg">
<path d="M6.24003 18.72C6.24003 19.776 7.10403 20.64 8.16003 20.64H15.84C16.896 20.64 17.76 19.776 17.76 18.72V7.2H6.24003V18.72V18.72ZM8.16003 9.12H15.84V18.72H8.16003V9.12ZM15.36 4.32L14.4 3.36H9.60003L8.64003 4.32H5.28003V6.24H18.72V4.32H15.36Z" fill="#1C2125"/>
</svg>

<!-- Generated by IcoMoon.io -->
<svg version="1.1" xmlns="http://www.w3.org/2000/svg" width="24" height="24" viewBox="0 0 24 24">
<title>trash-content</title>
<path fill="#444" d="M6.24 18.72c0 1.056 0.864 1.92 1.92 1.92h7.68c1.056 0 1.92-0.864 1.92-1.92v-11.52h-11.52v11.52zM8.16 9.12h7.68v9.6h-7.68v-9.6zM15.36 4.32l-0.96-0.96h-4.8l-0.96 0.96h-3.36v1.92h13.44v-1.92h-3.36z"></path>
</svg>
